src/img/icons/icon-cps.svg

<svg width="98" height="52" viewBox="0 0 98 52" fill="none" xmlns="http://www.w3.org/2000/svg">
<path fill-rule="evenodd" clip-rule="evenodd" d="M36.5703 0.592529C36.018 0.592529 35.5703 1.04024 35.5703 1.59253V5.86748C35.5703 6.41977 36.018 6.86748 36.5703 6.86748H72.8973C83.0242 6.86748 90.9777 14.6641 90.9777 24.757C90.9777 25.0425 91.2092 25.274 91.4948 25.274H96.757C97.0425 25.274 97.274 25.0425 97.274 24.757C97.274 11.2677 86.432 0.592529 72.8973 0.592529H36.5703Z" fill="#6B7B84" stroke="#80949F" stroke-width="0.5"/>
<path fill-rule="evenodd" clip-rule="evenodd" d="M7.10682 25.7122C7.10682 25.4702 6.91059 25.2739 6.66853 25.2739H1.16436C0.922303 25.2739 0.726074 25.4702 0.726074 25.7122C0.726074 39.3616 10.9493 50.6311 24.1687 51.3686L66.5104 51.4064C67.063 51.4069 67.5113 50.959 67.5113 50.4064V45.8267C67.5113 45.2745 67.0635 44.8267 66.5113 44.8267H25.6265C15.3903 44.7984 7.10682 36.283 7.10682 25.7122Z" fill="#6B7B84" stroke="#80949F" stroke-width="0.5"/>
<path fill-rule="evenodd" clip-rule="evenodd" d="M28.1415 39.7924C30.8803 39.7924 33.1616 39.2603 35.4149 38.1655L35.5704 38.0199V30.1855L34.7273 31.2649C33.1049 33.0378 30.9259 34.0137 28.4608 34.0137C23.8692 34.0137 19.2575 31.0459 19.2575 25.3738C19.2575 21.0874 22.4381 16.532 28.2993 16.532C29.4688 16.532 32.313 16.8085 34.7232 19.368L35.5704 20.4117V12.6127L35.4218 12.4653C33.1258 11.3147 30.7843 10.7554 28.1137 10.7554C23.5467 10.7554 19.9821 11.9577 17.1438 14.4289C15.3435 15.9777 12.3408 19.4485 12.3408 25.2923C12.3408 29.6131 13.8793 32.9875 17.1669 35.9144C20.2252 38.5962 23.6163 39.7924 28.1415 39.7924Z" fill="#6B7B84"/>
<path d="M28.1415 39.7924C30.8803 39.7924 33.1616 39.2603 35.4149 38.1655L35.5704 38.0199V30.1855L34.7273 31.2649C33.1049 33.0378 30.9259 34.0137 28.4608 34.0137C23.8692 34.0137 19.2575 31.0459 19.2575 25.3738C19.2575 21.0874 22.4381 16.532 28.2993 16.532C29.4688 16.532 32.313 16.8085 34.7232 19.368L35.5704 20.4117V12.6127L35.4218 12.4653C33.1258 11.3147 30.7843 10.7554 28.1137 10.7554C23.5467 10.7554 19.9821 11.9577 17.1438 14.4289C15.3435 15.9777 12.3408 19.4485 12.3408 25.2923C12.3408 29.6131 13.8793 32.9875 17.1669 35.9144C20.2252 38.5962 23.6163 39.7924 28.1415 39.7924" stroke="#80949F" stroke-width="0.5"/>
<path fill-rule="evenodd" clip-rule="evenodd" d="M47.9111 17.2888H49.2755C50.5269 17.2888 51.9533 17.3571 53.0328 18.093C53.56 18.4695 54.4445 19.3412 54.4445 20.9246C54.4445 22.0946 53.9274 23.1437 53.0734 23.7984C51.9783 24.5932 50.6768 24.5476 49.6309 24.5476H47.9111V17.2888ZM50.977 29.8179C54.2084 29.8179 56.7377 28.8858 58.4943 27.1298C60.655 24.9735 60.9779 22.0073 60.9779 20.4435C60.9779 18.7703 60.5813 15.5066 57.9212 13.1435C55.7407 11.2328 53.4142 10.7554 50.1324 10.7554H41.3779V39.7924H48.0365V29.8179H50.977Z" fill="#6B7B84"/>
<path d="M47.9111 17.2888V17.0388H47.6611V17.2888H47.9111ZM53.0328 18.093L53.1782 17.8895L53.1736 17.8864L53.0328 18.093ZM53.0734 23.7984L53.2203 24.0007L53.2254 23.9968L53.0734 23.7984ZM47.9111 24.5476H47.6611V24.7976H47.9111V24.5476ZM58.4943 27.1298L58.3177 26.9529L58.3175 26.953L58.4943 27.1298ZM57.9212 13.1435L58.0872 12.9566L58.086 12.9555L57.9212 13.1435ZM41.3779 10.7554V10.5054H41.1279V10.7554H41.3779ZM41.3779 39.7924H41.1279V40.0424H41.3779V39.7924ZM48.0365 39.7924V40.0424H48.2865V39.7924H48.0365ZM48.0365 29.8179V29.5679H47.7865V29.8179H48.0365ZM47.9111 17.5388H49.2755V17.0388H47.9111V17.5388ZM49.2755 17.5388C50.5326 17.5388 51.8839 17.6123 52.892 18.2995L53.1736 17.8864C52.0227 17.1019 50.5212 17.0388 49.2755 17.0388V17.5388ZM52.8875 18.2964C53.3751 18.6447 54.1945 19.4495 54.1945 20.9246H54.6945C54.6945 19.233 53.7448 18.2943 53.1782 17.8895L52.8875 18.2964ZM54.1945 20.9246C54.1945 22.0205 53.7107 22.9948 52.9213 23.5999L53.2254 23.9968C54.1441 23.2926 54.6945 22.1687 54.6945 20.9246H54.1945ZM52.9265 23.596C51.9091 24.3345 50.6971 24.2976 49.6309 24.2976V24.7976C50.6564 24.7976 52.0475 24.8519 53.2202 24.0007L52.9265 23.596ZM49.6309 24.2976H47.9111V24.7976H49.6309V24.2976ZM48.1611 24.5476V17.2888H47.6611V24.5476H48.1611ZM50.977 30.0679C54.2568 30.0679 56.8563 29.1207 58.671 27.3066L58.3175 26.953C56.6191 28.6509 54.1599 29.5679 50.977 29.5679V30.0679ZM58.6709 27.3068C60.9029 25.0793 61.2279 22.0287 61.2279 20.4435H60.7279C60.7279 21.9859 60.407 24.8678 58.3177 26.9529L58.6709 27.3068ZM61.2279 20.4435C61.2279 18.7422 60.8263 15.3898 58.0872 12.9566L57.7552 13.3304C60.3363 15.6233 60.7279 18.7983 60.7279 20.4435H61.2279ZM58.086 12.9555C55.84 10.9874 53.4417 10.5054 50.1324 10.5054V11.0054C53.3867 11.0054 55.6415 11.4782 57.7564 13.3315L58.086 12.9555ZM50.1324 10.5054H41.3779V11.0054H50.1324V10.5054ZM41.1279 10.7554V39.7924H41.6279V10.7554H41.1279ZM41.3779 40.0424H48.0365V39.5424H41.3779V40.0424ZM48.2865 39.7924V29.8179H47.7865V39.7924H48.2865ZM48.0365 30.0679H50.977V29.5679H48.0365V30.0679Z" fill="#80949F"/>
<path fill-rule="evenodd" clip-rule="evenodd" d="M80.953 24.4687C79.5053 23.1861 77.4846 22.4425 75.1911 21.6713C73.5569 21.1027 72.6565 20.7894 72.0562 20.2421C71.5824 19.8399 71.3712 19.4033 71.3712 18.8262C71.3712 17.5622 72.2301 16.2113 74.6414 16.2113C76.2801 16.2113 77.6521 16.912 78.7197 18.293L79.1435 18.8414L82.6597 14.3656L82.3392 14.0445C80.1886 11.8924 77.3548 10.7554 74.1439 10.7554C67.6657 10.7554 64.7658 14.9699 64.7658 19.1468C64.7658 21.3882 65.5651 23.196 67.1367 24.5175C68.5437 25.7234 70.2595 26.3991 71.9054 26.9507L72.0914 27.0123C73.553 27.4954 75.0646 27.9954 75.9674 28.8034C76.5955 29.3805 76.8754 30.0076 76.8754 30.8367C76.8754 32.7368 75.379 34.0137 73.152 34.0137C71.3916 34.0137 69.0735 33.1508 67.8471 30.7296L67.5263 30.0953L63.1558 34.1411L63.4135 34.5056C64.8079 36.4801 67.9545 39.7924 73.3594 39.7924C79.3191 39.7924 83.4817 35.9608 83.4817 30.4751C83.4817 27.3374 82.1051 25.4752 80.953 24.4687Z" fill="#6B7B84"/>
<path d="M80.953 24.4687C79.5053 23.1861 77.4846 22.4425 75.1911 21.6713C73.5569 21.1027 72.6565 20.7894 72.0562 20.2421C71.5824 19.8399 71.3712 19.4033 71.3712 18.8262C71.3712 17.5622 72.2301 16.2113 74.6414 16.2113C76.2801 16.2113 77.6521 16.912 78.7197 18.293L79.1435 18.8414L82.6597 14.3656L82.3392 14.0445C80.1886 11.8924 77.3548 10.7554 74.1439 10.7554C67.6657 10.7554 64.7658 14.9699 64.7658 19.1468C64.7658 21.3882 65.5651 23.196 67.1367 24.5175C68.5437 25.7234 70.2595 26.3991 71.9054 26.9507L72.0914 27.0123C73.553 27.4954 75.0646 27.9954 75.9674 28.8034C76.5955 29.3805 76.8754 30.0076 76.8754 30.8367C76.8754 32.7368 75.379 34.0137 73.152 34.0137C71.3916 34.0137 69.0735 33.1508 67.8471 30.7296L67.5263 30.0953L63.1558 34.1411L63.4135 34.5056C64.8079 36.4801 67.9545 39.7924 73.3594 39.7924C79.3191 39.7924 83.4817 35.9608 83.4817 30.4751C83.4817 27.3374 82.1051 25.4752 80.953 24.4687" stroke="#80949F" stroke-width="0.5"/>
</svg>

<svg width="98" height="52" fill="none" xmlns="http://www.w3.org/2000/svg"><path fill-rule="evenodd" clip-rule="evenodd" d="M36.57.593a1 1 0 00-1 1v4.274a1 1 0 001 1h36.327c10.127 0 18.08 7.797 18.08 17.89 0 .285.232.517.518.517h5.262a.517.517 0 00.517-.517c0-13.49-10.842-24.164-24.377-24.164H36.57zM7.107 25.712a.438.438 0 00-.438-.438H1.164a.438.438 0 00-.438.438c0 13.65 10.223 24.92 23.443 25.657l42.341.037a1 1 0 001.001-1v-4.58a1 1 0 00-1-1H25.627c-10.237-.028-18.52-8.543-18.52-19.114z" fill="#6B7B84" stroke="#80949F" stroke-width=".5"/><path fill-rule="evenodd" clip-rule="evenodd" d="M28.142 39.792c2.738 0 5.02-.532 7.273-1.627l.155-.145v-7.835l-.843 1.08c-1.622 1.773-3.801 2.749-6.266 2.749-4.592 0-9.203-2.968-9.203-8.64 0-4.287 3.18-8.842 9.041-8.842 1.17 0 4.014.276 6.424 2.836l.847 1.044v-7.8l-.148-.147c-2.296-1.15-4.638-1.71-7.308-1.71-4.567 0-8.132 1.203-10.97 3.674-1.8 1.549-4.803 5.02-4.803 10.863 0 4.321 1.538 7.695 4.826 10.622 3.058 2.682 6.45 3.878 10.974 3.878z" fill="#6B7B84"/><path d="M28.142 39.792c2.738 0 5.02-.532 7.273-1.627l.155-.145v-7.835l-.843 1.08c-1.622 1.773-3.801 2.749-6.266 2.749-4.592 0-9.203-2.968-9.203-8.64 0-4.287 3.18-8.842 9.041-8.842 1.17 0 4.014.276 6.424 2.836l.847 1.044v-7.8l-.148-.147c-2.296-1.15-4.638-1.71-7.308-1.71-4.567 0-8.132 1.203-10.97 3.674-1.8 1.549-4.803 5.02-4.803 10.863 0 4.321 1.538 7.695 4.826 10.622 3.058 2.682 6.45 3.878 10.974 3.878" stroke="#80949F" stroke-width=".5"/><path fill-rule="evenodd" clip-rule="evenodd" d="M47.911 17.289h1.364c1.252 0 2.678.068 3.758.804.527.377 1.411 1.248 1.411 2.832 0 1.17-.517 2.219-1.37 2.873-1.096.795-2.397.75-3.443.75h-1.72v-7.26zm3.066 12.529c3.231 0 5.76-.932 7.517-2.688 2.161-2.156 2.484-5.123 2.484-6.686 0-1.674-.397-4.937-3.057-7.3-2.18-1.911-4.507-2.389-7.789-2.389h-8.754v29.037h6.658v-9.974h2.941z" fill="#6B7B84"/><path d="M47.911 17.289v-.25h-.25v.25h.25zm5.122.804l.145-.203-.004-.004-.141.207zm.04 5.705l.147.203.005-.004-.152-.199zm-5.162.75h-.25v.25h.25v-.25zm10.583 2.582l-.176-.177.176.177zm-.573-13.986l.166-.187-.001-.002-.165.188zm-16.543-2.389v-.25h-.25v.25h.25zm0 29.037h-.25v.25h.25v-.25zm6.658 0v.25h.25v-.25h-.25zm0-9.974v-.25h-.25v.25h.25zm-.125-12.28h1.364v-.5h-1.364v.5zm1.364 0c1.258 0 2.609.074 3.617.761l.282-.413c-1.151-.784-2.653-.847-3.898-.847v.5zm3.613.758c.487.349 1.306 1.154 1.306 2.629h.5c0-1.692-.95-2.63-1.516-3.035l-.29.406zm1.306 2.629c0 1.095-.483 2.07-1.273 2.675l.304.397c.92-.704 1.47-1.828 1.47-3.072h-.5zm-1.268 2.671c-1.017.738-2.229.702-3.295.702v.5c1.025 0 2.416.054 3.59-.797l-.294-.405zm-3.295.702h-1.72v.5h1.72v-.5zm-1.47.25v-7.26h-.5v7.26h.5zm2.816 5.52c3.28 0 5.88-.947 7.694-2.761l-.353-.354c-1.699 1.698-4.158 2.615-7.341 2.615v.5zm7.694-2.761c2.232-2.228 2.557-5.278 2.557-6.863h-.5c0 1.542-.321 4.424-2.41 6.509l.353.354zm2.557-6.863c0-1.702-.402-5.054-3.14-7.487l-.333.373c2.581 2.293 2.973 5.468 2.973 7.114h.5zm-3.142-7.488c-2.246-1.969-4.644-2.45-7.954-2.45v.5c3.255 0 5.51.472 7.624 2.325l.33-.375zm-7.954-2.45h-8.754v.5h8.754v-.5zm-9.004.25v29.036h.5V10.755h-.5zm.25 29.286h6.658v-.5h-6.658v.5zm6.908-.25v-9.974h-.5v9.974h.5zm-.25-9.724h2.941v-.5h-2.94v.5z" fill="#80949F"/><path fill-rule="evenodd" clip-rule="evenodd" d="M80.953 24.469c-1.448-1.283-3.468-2.027-5.762-2.798-1.634-.568-2.535-.882-3.135-1.429-.474-.402-.685-.839-.685-1.416 0-1.264.86-2.615 3.27-2.615 1.64 0 3.011.701 4.079 2.082l.424.548 3.516-4.475-.32-.322c-2.151-2.152-4.985-3.289-8.196-3.289-6.478 0-9.378 4.215-9.378 8.392 0 2.241.8 4.049 2.37 5.37 1.408 1.206 3.124 1.882 4.77 2.434l.185.061c1.462.483 2.974.983 3.876 1.791.629.578.908 1.205.908 2.034 0 1.9-1.496 3.177-3.723 3.177-1.76 0-4.079-.863-5.305-3.284l-.32-.635-4.371 4.046.258.365c1.394 1.974 4.54 5.286 9.945 5.286 5.96 0 10.123-3.831 10.123-9.317 0-3.138-1.377-5-2.529-6.006z" fill="#6B7B84"/><path d="M80.953 24.469c-1.448-1.283-3.468-2.027-5.762-2.798-1.634-.568-2.535-.882-3.135-1.429-.474-.402-.685-.839-.685-1.416 0-1.264.86-2.615 3.27-2.615 1.64 0 3.011.701 4.079 2.082l.424.548 3.516-4.475-.32-.322c-2.151-2.152-4.985-3.289-8.196-3.289-6.478 0-9.378 4.215-9.378 8.392 0 2.241.8 4.049 2.37 5.37 1.408 1.206 3.124 1.882 4.77 2.434l.185.061c1.462.483 2.974.983 3.876 1.791.629.578.908 1.205.908 2.034 0 1.9-1.496 3.177-3.723 3.177-1.76 0-4.079-.863-5.305-3.284l-.32-.635-4.371 4.046.258.365c1.394 1.974 4.54 5.286 9.945 5.286 5.96 0 10.123-3.831 10.123-9.317 0-3.138-1.377-5-2.529-6.006" stroke="#80949F" stroke-width=".5"/></svg>
